icon-svg/nanoleaf-outdoor-string.svg

<svg xmlns="http://www.w3.org/2000/svg" viewBox="0 0 24 24"><path fill="#44739e" d="M17.63 6.556h.238V10.1h-.18a.35.35 0 0 0-.347.32l-.107 1.3h-.007l-.6.82h3l-.679-.82h-.008l-.14-1.305a.35.35 0 0 0-.347-.312h-.106V6.551A41 41 0 0 0 22 6.335l-.012-.119a41 41 0 0 1-3.639.215V4.7h-.481v1.736c-.739 0-1.507-.01-2.324-.041v-.037a.11.11 0 0 0-.109-.112h-.124a.1.1 0 0 1-.033-.006l-.188-.064-.031-.006-1.015-.05a.1.1 0 0 0-.05.009l-.122.052a.1.1 0 0 1-.042.009l-.242.007a.11.11 0 0 0-.107.092 61 61 0 0 1-6.135-.719V2.565h-.365v2.941c-1-.179-1.957-.38-2.854-.6v-.192a.02.02 0 0 0-.018-.014H2l.4.214.008.008.123.3.057.5a.02.02 0 0 0 .012.018h.11v1.8h-.06a.115.115 0 0 0-.115.106l-.035.429-.2.273h1l-.226-.273-.052-.435a.116.116 0 0 0-.115-.1h-.035v-1.8h.094a.02.02 0 0 0 .016-.011l.176-.411.162-.218a.02.02 0 0 1 .015-.008l.459.019.229.055a.02.02 0 0 0 .017 0l.079-.084v-.055c.9.222 1.855.423 2.854.6V6.67h-.128a.265.265 0 0 0-.264.243L6.5 7.9l-.456.622h2.274L7.8 7.9l-.105-1a.265.265 0 0 0-.264-.237h-.085v-.971a61 61 0 0 0 6.133.717v.078a.11.11 0 0 0 .094.111l.308.05a.1.1 0 0 1 .031.01l.173.084a.1.1 0 0 1 .05.049l.124.243.008.021.069.249a.11.11 0 0 0 .11.082h.015v1.475H14.4a.116.116 0 0 0-.115.107l-.035.432-.2.272h1l-.23-.272-.046-.436a.116.116 0 0 0-.115-.1h-.035V7.383h.03a.11.11 0 0 0 .107-.086l.056-.243.006-.018.1-.248a.12.12 0 0 1 .082-.067l.261-.051h.017l.153-.006a.11.11 0 0 0 .108-.112v-.037c.729.028 1.421.041 2.086.041m-2.799 5.378v-.8l-.079-.345a.27.27 0 0 1-.2.111l-.006.666.063.069v.411Zm-.284.144.042-.021v-.405l-.042-.048Zm.407-.184-.407.214v.292a.44.44 0 0 0 .407-.506m-.407.523v.209l.265-.011.236-.05.211-.381-.293-.132a.42.42 0 0 1-.419.365m.423-.532v.151l.3.136s.052-.092.058-.1l-.272-.23Zm.072-.321.028.271s.256.222.263.225 0-.183 0-.183Zm-.194-.387v.747l.178-.089Zm.098-.386h-.178l.28 1.044Zm.382.946a1.4 1.4 0 0 1-.134-.209 2.4 2.4 0 0 1-.216-.737l.063.756.3.311a1 1 0 0 0-.013-.121m-.993-.946-.079.345v.8l.224.114v-.411l.063-.069-.006-.666a.27.27 0 0 1-.202-.113m.163.869v.397l.042.021v-.474l-.042.048Zm.042.74v-.294l-.407-.214a.44.44 0 0 0 .407.508m-.419-.348-.293.132.211.381.236.05.265.011v-.209a.424.424 0 0 1-.419-.365m-.003-.167-.083-.039-.271.23c.006 0 .057.1.057.1l.3-.136Zm-.072-.321-.3.313a2 2 0 0 0 .006.183c.006 0 .262-.225.262-.225Zm.193-.387-.178.658.178.089Zm-.098-.386-.102 1.044.281-1.044Zm-.382.946a1 1 0 0 0-.009.121l.3-.311.063-.756a2.4 2.4 0 0 1-.216.737 1.4 1.4 0 0 1-.138.209m1.305-1.392h-1.038l.046.421h.953Zm-1.085-.163h1.137v.138h-1.137Zm.039-.169h1.057v.145h-1.057Zm.021-.312h1.006v.28h-1.006Zm-10.957.907v-.8L3 9.465a.27.27 0 0 1-.2.112l-.006.665.063.07v.41Zm-.284.145.042-.022v-.404l-.042-.049Zm.408-.184-.408.214v.293a.44.44 0 0 0 .408-.507m-.406.522v.21l.265-.012.236-.05.211-.38-.293-.133a.42.42 0 0 1-.419.365m.421-.532v.152l.3.136s.052-.092.058-.1L3.3 10.52Zm.072-.32.028.271s.256.222.263.224 0-.183 0-.183Zm-.194-.387v.747l.178-.089Zm.098-.387h-.178l.28 1.045Zm.382.947a1.4 1.4 0 0 1-.134-.209 2.4 2.4 0 0 1-.216-.738l.063.757.3.311a1 1 0 0 0-.013-.121m-.993-.947-.079.346v.8l.224.114v-.41l.063-.07V9.58a.27.27 0 0 1-.208-.115m.163.869v.397l.042.022v-.475l-.042.049Zm.042.742v-.293l-.407-.214a.44.44 0 0 0 .407.507m-.419-.35-.293.133.211.38.236.05.265.012v-.21a.42.42 0 0 1-.419-.365m-.003-.167-.083-.039-.271.231c.006 0 .057.1.057.1l.3-.136Zm-.069-.32-.3.312a2 2 0 0 0 .006.183c.006 0 .262-.224.262-.224Zm.19-.387-.178.658.178.089Zm-.098-.387L2.29 10.51l.281-1.045Zm-.382.947a1 1 0 0 0-.01.121l.3-.311.063-.757a2.5 2.5 0 0 1-.216.738 1.4 1.4 0 0 1-.137.209M3.315 9.02H2.277l.046.42h.953ZM2.23 8.856h1.137v.138H2.23Zm.039-.168h1.057v.145H2.269Zm.021-.313h1.006v.28H2.29Zm5.538 5.317V11.87l-.181-.79a.62.62 0 0 1-.456.255l-.012 1.521.143.159-.007.938Zm-.649.331.095-.049v-.925l-.095-.111Zm.93-.423-.93.49v.671a1.01 1.01 0 0 0 .93-1.161m-.93 1.2v.478l.6-.026.539-.114.483-.871-.67-.3a.964.964 0 0 1-.952.833m.965-1.219-.008.346.685.311s.119-.21.132-.22l-.62-.527Zm.164-.734.066.62s.585.508.6.513a4 4 0 0 0 .013-.417Zm-.442-.884v1.708l.408-.204Zm.224-.883h-.408l.641 2.387Zm.874 2.164a3 3 0 0 1-.308-.479 5.6 5.6 0 0 1-.494-1.685l.145 1.73.677.71a2 2 0 0 0-.02-.276m-2.27-2.164-.181.79v1.822l.512.261-.006-.938.143-.159-.013-1.521a.62.62 0 0 1-.455-.255m.372 1.986v.908l.096.049v-1.085l-.096.111Zm.096 1.697v-.671l-.931-.49a1.01 1.01 0 0 0 .931 1.161m-.957-.801-.671.3.484.871.539.114.6.026V14.8a.964.964 0 0 1-.952-.838m-.005-.381-.189-.09-.62.527c.013.01.132.22.132.22l.685-.311Zm-.168-.734-.678.716a4 4 0 0 0 .013.417c.014-.005.6-.513.6-.513Zm.443-.884-.408 1.504.408.204Zm-.224-.883-.233 2.387.641-2.387Zm-.875 2.164a2 2 0 0 0-.019.276l.677-.71.145-1.73a5.5 5.5 0 0 1-.5 1.685 3 3 0 0 1-.303.479m2.984-3.183H5.988l.104.962h2.179Zm-2.48-.373h2.599v.316H5.88Zm.088-.385h2.416v.33H5.968Zm.05-.715h2.3v.641h-2.3Zm12.964 10.763v-2.4l-.238-1.04a.82.82 0 0 1-.6.335l-.017 2 .189.21-.009 1.235Zm-.854.435.126-.065v-1.218l-.126-.146Zm1.226-.554-1.226.645v.883a1.33 1.33 0 0 0 1.226-1.528m-1.226 1.573v.63l.8-.034.71-.151.636-1.146-.883-.4a1.27 1.27 0 0 1-1.263 1.101M19.4 19.2l-.011.457.9.409s.156-.276.173-.289l-.816-.694Zm.215-.962.087.816s.771.669.79.676a5 5 0 0 0 .017-.55Zm-.582-1.165v2.25l.537-.269Zm.295-1.162h-.537l.844 3.143Zm1.151 2.849a4 4 0 0 1-.4-.63 7.3 7.3 0 0 1-.651-2.219l.19 2.277.892.935a3 3 0 0 0-.031-.363m-2.989-2.849-.238 1.04v2.4l.674.343-.009-1.235.189-.21-.017-2a.82.82 0 0 1-.599-.338m.49 2.615v1.195l.126.065v-1.429l-.126.146Zm.126 2.234v-.883l-1.226-.645a1.33 1.33 0 0 0 1.226 1.528m-1.26-1.054-.884.4.638 1.144.71.151.8.034v-.63a1.27 1.27 0 0 1-1.264-1.099m-.011-.506-.249-.117-.817.694c.018.013.174.289.174.289l.9-.409Zm-.217-.962-.893.942a5 5 0 0 0 .017.55c.019-.007.79-.676.79-.676Zm.583-1.165-.537 1.981.537.269Zm-.295-1.162-.307 3.143.844-3.143Zm-1.151 2.849a3 3 0 0 0-.026.363l.891-.935.191-2.277a7.3 7.3 0 0 1-.651 2.219 4 4 0 0 1-.405.63m3.929-4.191H16.56l.136 1.266h2.871Zm-3.267-.492h3.423v.416h-3.423Zm.117-.506h3.182v.435h-3.182Zm.065-.942h3.029v.844h-3.029Z"/></svg>

<?xml version="1.0" encoding="UTF-8"?>
<svg width="24px" fill="#44739e" height="24px" viewBox="0 0 24 24" version="1.1" xmlns="http://www.w3.org/2000/svg" xmlns:xlink="http://www.w3.org/1999/xlink">
            <path d="m 17.63,6.556 h 0.238 V 10.1 h -0.18 a 0.348,0.348 0 0 0 -0.347,0.32 l -0.107,1.3 h -0.007 l -0.6,0.82 h 3 L 18.948,11.72 H 18.94 L 18.8,10.415 A 0.349,0.349 0 0 0 18.453,10.103 H 18.347 V 6.551 C 19.611,6.531 20.8,6.46 22,6.335 L 21.988,6.216 c -1.2,0.124 -2.381,0.195 -3.639,0.215 V 4.7 h -0.481 v 1.736 c -0.739,0 -1.507,-0.01 -2.324,-0.041 V 6.358 A 0.112,0.112 0 0 0 15.435,6.246 H 15.311 A 0.088,0.088 0 0 1 15.278,6.24 L 15.09,6.176 A 0.155,0.155 0 0 0 15.059,6.17 L 14.044,6.12 a 0.108,0.108 0 0 0 -0.05,0.009 L 13.872,6.181 A 0.1,0.1 0 0 1 13.83,6.19 L 13.588,6.197 A 0.11,0.11 0 0 0 13.481,6.289 60.5,60.5 0 0 1 7.346,5.57 V 2.565 H 6.981 v 2.941 c -1,-0.179 -1.957,-0.38 -2.854,-0.6 V 4.714 A 0.017,0.017 0 0 0 4.109,4.7 H 2 l 0.4,0.214 0.008,0.008 0.123,0.3 v 0 l 0.057,0.5 A 0.017,0.017 0 0 0 2.6,5.74 h 0.11 v 1.8 H 2.65 A 0.115,0.115 0 0 0 2.535,7.646 L 2.5,8.075 v 0 L 2.3,8.348 h 1 L 3.074,8.075 v 0 L 3.022,7.64 A 0.116,0.116 0 0 0 2.907,7.54 H 2.872 V 5.74 H 2.966 A 0.017,0.017 0 0 0 2.982,5.729 L 3.158,5.318 v 0 L 3.32,5.1 A 0.019,0.019 0 0 1 3.335,5.092 l 0.459,0.019 v 0 l 0.229,0.055 a 0.016,0.016 0 0 0 0.017,0 L 4.119,5.082 a 0.021,0.021 0 0 0 0,-0.012 V 5.027 c 0.9,0.222 1.855,0.423 2.854,0.6 V 6.67 H 6.845 A 0.265,0.265 0 0 0 6.581,6.913 L 6.5,7.9 v 0 L 6.044,8.522 H 8.318 L 7.8,7.9 v 0 L 7.695,6.9 A 0.265,0.265 0 0 0 7.431,6.663 H 7.346 V 5.692 a 60.819,60.819 0 0 0 6.133,0.717 v 0.078 a 0.112,0.112 0 0 0 0.094,0.111 l 0.308,0.05 a 0.112,0.112 0 0 1 0.031,0.01 l 0.173,0.084 a 0.113,0.113 0 0 1 0.05,0.049 l 0.124,0.243 0.008,0.021 0.069,0.249 a 0.112,0.112 0 0 0 0.11,0.082 h 0.015 V 8.861 H 14.4 A 0.116,0.116 0 0 0 14.285,8.968 L 14.25,9.4 v 0 l -0.2,0.272 h 1 L 14.82,9.4 v 0 L 14.774,8.964 a 0.116,0.116 0 0 0 -0.115,-0.1 H 14.624 V 7.383 h 0.03 a 0.113,0.113 0 0 0 0.107,-0.086 l 0.056,-0.243 0.006,-0.018 0.1,-0.248 A 0.116,0.116 0 0 1 15.005,6.721 L 15.266,6.67 h 0.017 L 15.436,6.664 A 0.112,0.112 0 0 0 15.544,6.552 V 6.515 c 0.729,0.028 1.421,0.041 2.086,0.041 z m -2.799,5.378 v -0.8 l -0.079,-0.345 a 0.274,0.274 0 0 1 -0.2,0.111 l -0.006,0.666 0.063,0.069 v 0.411 z m -0.284,0.144 0.042,-0.021 V 11.66 11.652 l -0.042,-0.048 z m 0.407,-0.184 -0.407,0.214 V 12.4 a 0.442,0.442 0 0 0 0.407,-0.506 z m -0.407,0.523 v 0.209 l 0.265,-0.011 0.236,-0.05 0.211,-0.381 -0.293,-0.132 a 0.423,0.423 0 0 1 -0.419,0.365 z m 0.423,-0.532 v 0.151 l 0.3,0.136 c 0,0 0.052,-0.092 0.058,-0.1 l -0.272,-0.23 z m 0.072,-0.321 0.028,0.271 c 0,0 0.256,0.222 0.263,0.225 0.007,0.003 0,-0.183 0,-0.183 z m -0.194,-0.387 v 0.747 l 0.178,-0.089 z m 0.098,-0.386 h -0.178 l 0.28,1.044 z m 0.382,0.946 a 1.37,1.37 0 0 1 -0.134,-0.209 2.38,2.38 0 0 1 -0.216,-0.737 l 0.063,0.756 0.3,0.311 a 0.943,0.943 0 0 0 -0.013,-0.121 z m -0.993,-0.946 -0.079,0.345 v 0.8 l 0.224,0.114 v -0.411 l 0.063,-0.069 -0.006,-0.666 a 0.274,0.274 0 0 1 -0.202,-0.113 z m 0.163,0.869 v 0.397 l 0.042,0.021 v -0.474 l -0.042,0.048 z M 14.54,12.4 V 12.106 L 14.133,11.892 A 0.442,0.442 0 0 0 14.54,12.4 Z m -0.419,-0.348 -0.293,0.132 0.211,0.381 0.236,0.05 0.265,0.011 v -0.209 a 0.424,0.424 0 0 1 -0.419,-0.365 z m -0.003,-0.167 -0.083,-0.039 -0.271,0.23 c 0.006,0 0.057,0.1 0.057,0.1 l 0.3,-0.136 z m -0.072,-0.321 -0.3,0.313 a 1.584,1.584 0 0 0 0.006,0.183 c 0.006,0 0.262,-0.225 0.262,-0.225 z m 0.193,-0.387 -0.178,0.658 0.178,0.089 z m -0.098,-0.386 -0.102,1.044 0.281,-1.044 z m -0.382,0.946 a 0.943,0.943 0 0 0 -0.009,0.121 l 0.3,-0.311 0.063,-0.756 a 2.437,2.437 0 0 1 -0.216,0.737 1.377,1.377 0 0 1 -0.138,0.209 z m 1.305,-1.392 h -1.038 l 0.046,0.421 h 0.953 z m -1.085,-0.163 h 1.137 v 0.138 h -1.137 z m 0.039,-0.169 h 1.057 v 0.145 h -1.057 z m 0.021,-0.3119998 h 1.006 v 0.28 H 14.039 Z M 3.082,10.608 v -0.8 L 3,9.465 A 0.273,0.273 0 0 1 2.8,9.577 l -0.006,0.665 0.063,0.07 v 0.41 z M 2.798,10.753 2.84,10.731 V 10.334 10.327 L 2.798,10.278 Z m 0.408,-0.184 -0.408,0.214 v 0.293 A 0.442,0.442 0 0 0 3.206,10.569 Z M 2.8,11.091 v 0.21 l 0.265,-0.012 0.236,-0.05 0.211,-0.38 -0.293,-0.133 A 0.42,0.42 0 0 1 2.8,11.091 Z m 0.421,-0.532 v 0.152 l 0.3,0.136 c 0,0 0.052,-0.092 0.058,-0.1 L 3.3,10.52 Z m 0.072,-0.32 0.028,0.271 c 0,0 0.256,0.222 0.263,0.224 0.007,0.002 0,-0.183 0,-0.183 z M 3.099,9.852 v 0.747 L 3.277,10.51 Z M 3.197,9.465 H 3.019 l 0.28,1.045 z m 0.382,0.947 A 1.37,1.37 0 0 1 3.445,10.203 2.388,2.388 0 0 1 3.229,9.465 l 0.063,0.757 0.3,0.311 A 0.943,0.943 0 0 0 3.579,10.412 Z M 2.586,9.465 2.507,9.811 v 0.8 l 0.224,0.114 v -0.41 l 0.063,-0.07 V 9.58 A 0.274,0.274 0 0 1 2.586,9.465 Z m 0.163,0.869 v 0.397 l 0.042,0.022 v -0.475 l -0.042,0.049 z m 0.042,0.742 V 10.783 L 2.384,10.569 a 0.441,0.441 0 0 0 0.407,0.507 z m -0.419,-0.35 -0.293,0.133 0.211,0.38 0.236,0.05 0.265,0.012 v -0.21 A 0.422,0.422 0 0 1 2.372,10.726 Z M 2.369,10.559 2.286,10.52 2.015,10.751 c 0.006,0 0.057,0.1 0.057,0.1 l 0.3,-0.136 z M 2.3,10.239 2,10.551 a 1.584,1.584 0 0 0 0.006,0.183 c 0.006,0 0.262,-0.224 0.262,-0.224 z M 2.49,9.852 2.312,10.51 2.49,10.599 Z M 2.392,9.465 2.29,10.51 2.571,9.465 Z M 2.01,10.412 A 0.943,0.943 0 0 0 2,10.533 L 2.3,10.222 2.363,9.465 A 2.446,2.446 0 0 1 2.147,10.203 1.377,1.377 0 0 1 2.01,10.412 Z M 3.315,9.02 H 2.277 L 2.323,9.44 H 3.276 Z M 2.23,8.8559999 h 1.137 v 0.138 H 2.23 Z m 0.039,-0.1680002 h 1.057 v 0.145 h -1.057 z M 2.29,8.375 h 1.006 v 0.28 H 2.29 Z m 5.538,5.317 V 11.87 L 7.647,11.08 a 0.624,0.624 0 0 1 -0.456,0.255 l -0.012,1.521 0.143,0.159 -0.007,0.938 z M 7.179,14.023 7.274,13.974 V 13.066 13.049 L 7.179,12.938 Z m 0.93,-0.423 -0.93,0.49 v 0.671 A 1.009,1.009 0 0 0 8.109,13.6 Z m -0.93,1.2 v 0.478 l 0.6,-0.026 0.539,-0.114 0.483,-0.871 -0.67,-0.3 A 0.964,0.964 0 0 1 7.179,14.8 Z m 0.965,-1.219 -0.008,0.346 0.685,0.311 c 0,0 0.119,-0.21 0.132,-0.22 l -0.62,-0.527 z m 0.164,-0.734 0.066,0.62 c 0,0 0.585,0.508 0.6,0.513 A 3.833,3.833 0 0 0 8.987,13.563 Z M 7.866,11.963 v 1.708 L 8.274,13.467 Z M 8.09,11.08 H 7.682 l 0.641,2.387 z m 0.874,2.164 A 3.114,3.114 0 0 1 8.656,12.765 5.545,5.545 0 0 1 8.162,11.08 l 0.145,1.73 0.677,0.71 A 2.048,2.048 0 0 0 8.964,13.244 Z M 6.694,11.08 6.513,11.87 v 1.822 L 7.025,13.953 7.019,13.015 7.162,12.856 7.149,11.335 A 0.624,0.624 0 0 1 6.694,11.08 Z m 0.372,1.986 v 0.908 l 0.096,0.049 v -1.085 l -0.096,0.111 z m 0.096,1.697 v -0.671 l -0.931,-0.49 a 1.01,1.01 0 0 0 0.931,1.161 z m -0.957,-0.801 -0.671,0.3 0.484,0.871 0.539,0.114 0.6,0.026 V 14.8 A 0.964,0.964 0 0 1 6.205,13.962 Z M 6.2,13.581 6.011,13.491 5.391,14.018 c 0.013,0.01 0.132,0.22 0.132,0.22 L 6.208,13.927 Z M 6.032,12.847 5.354,13.563 a 3.833,3.833 0 0 0 0.013,0.417 c 0.014,-0.005 0.6,-0.513 0.6,-0.513 z m 0.443,-0.884 -0.408,1.504 0.408,0.204 z M 6.251,11.08 6.018,13.467 6.659,11.08 Z M 5.376,13.244 A 2.051,2.051 0 0 0 5.357,13.52 l 0.677,-0.71 0.145,-1.73 a 5.511,5.511 0 0 1 -0.5,1.685 3.114,3.114 0 0 1 -0.303,0.479 z M 8.36,10.061 H 5.988 l 0.104,0.962 H 8.271 Z M 5.8800001,9.6879997 h 2.599 V 10.004 h -2.599 z m 0.088,-0.3849992 h 2.4159999 v 0.33 H 5.9679999 Z m 0.05,-0.7150002 h 2.3 v 0.641 h -2.3 z M 18.982,19.351 v -2.4 l -0.238,-1.04 a 0.822,0.822 0 0 1 -0.6,0.335 l -0.017,2 0.189,0.21 -0.009,1.235 z m -0.854,0.435 0.126,-0.065 v -1.195 -0.023 l -0.126,-0.146 z m 1.226,-0.554 -1.226,0.645 v 0.883 a 1.33,1.33 0 0 0 1.226,-1.528 z m -1.226,1.573 v 0.63 l 0.8,-0.034 0.71,-0.151 0.636,-1.146 -0.883,-0.4 a 1.269,1.269 0 0 1 -1.263,1.101 z M 19.4,19.2 l -0.011,0.457 0.9,0.409 c 0,0 0.156,-0.276 0.173,-0.289 l -0.816,-0.694 z m 0.215,-0.962 0.087,0.816 c 0,0 0.771,0.669 0.79,0.676 a 5.006,5.006 0 0 0 0.017,-0.55 z m -0.582,-1.165 v 2.25 l 0.537,-0.269 z m 0.295,-1.162 h -0.537 l 0.844,3.143 z m 1.151,2.849 a 4.13,4.13 0 0 1 -0.4,-0.63 7.266,7.266 0 0 1 -0.651,-2.219 l 0.19,2.277 0.892,0.935 A 2.662,2.662 0 0 0 20.479,18.76 Z m -2.989,-2.849 -0.238,1.04 v 2.4 l 0.674,0.343 -0.009,-1.235 0.189,-0.21 -0.017,-2 A 0.822,0.822 0 0 1 17.49,15.911 Z m 0.49,2.615 v 1.195 l 0.126,0.065 v -1.429 l -0.126,0.146 z m 0.126,2.234 V 19.877 L 16.88,19.232 a 1.329,1.329 0 0 0 1.226,1.528 z m -1.26,-1.054 -0.884,0.4 0.638,1.144 0.71,0.151 0.8,0.034 v -0.63 A 1.268,1.268 0 0 1 16.846,19.706 Z M 16.835,19.2 16.586,19.083 15.769,19.777 c 0.018,0.013 0.174,0.289 0.174,0.289 l 0.9,-0.409 z m -0.217,-0.962 -0.893,0.942 a 5.006,5.006 0 0 0 0.017,0.55 c 0.019,-0.007 0.79,-0.676 0.79,-0.676 z m 0.583,-1.165 -0.537,1.981 0.537,0.269 z m -0.295,-1.162 -0.307,3.143 0.844,-3.143 z m -1.151,2.849 a 2.662,2.662 0 0 0 -0.026,0.363 l 0.891,-0.935 0.191,-2.277 a 7.3,7.3 0 0 1 -0.651,2.219 4.13,4.13 0 0 1 -0.405,0.63 z m 3.929,-4.191 H 16.56 l 0.136,1.266 h 2.871 z m -3.267,-0.492 h 3.423 v 0.416 h -3.423 z m 0.117,-0.506 h 3.182 v 0.435 h -3.182 z m 0.065,-0.942 h 3.029 v 0.844 h -3.029 z"/>

</svg>
